packages/icons/src/assets/font-color.svg

<svg width="16" height="16" viewBox="0 0 16 16" fill="none" xmlns="http://www.w3.org/2000/svg"><path d="M12.9336 10.5996H11.165L10.2607 8.49414H5.70996L4.80859 10.5996H3.06641L7.16113 1.5H8.8252L12.9336 10.5996ZM6.27734 7.16797H9.69141L7.98047 3.18555L6.27734 7.16797Z" fill="currentColor"/><path d="M15.5 12.7L15.5 15.1L0.599976 15.1L0.599976 12.7L15.5 12.7Z" fill="currentColor"/></svg>

<svg xmlns="http://www.w3.org/2000/svg" width="16" height="16" viewBox="0 0 16 16"><path d="M12.934 10.6h-1.769l-.904-2.106H5.71L4.809 10.6H3.066l4.095-9.1h1.664zM6.277 7.168h3.414l-1.71-3.982zM15.5 12.7v2.4H.6v-2.4z"/></svg>
